svgs/sharp-duotone-thin/ditto.svg

<svg xmlns="http://www.w3.org/2000/svg" viewBox="0 0 320 512"><!--! Font Awesome Pro 7.1.0 by @fontawesome - https://fontawesome.com License - https://fontawesome.com/license (Commercial License) Copyright 2025 Fonticons, Inc. --><path opacity=".4" fill="currentColor" d="M16 48l0 62.2 36.8 161.8 22.5 0 36.8-161.8 0-62.2-96 0zm192 0l0 62.2 36.8 161.8 22.5 0 36.8-161.8 0-62.2-96 0z"/><path fill="currentColor" d="M52.8 272l-36.8-161.8 0-62.2 96 0 0 62.2-36.8 161.8-22.5 0zM128 32l-128 0 0 80 40 176 48 0 40-176 0-80zM244.8 272l-36.8-161.8 0-62.2 96 0 0 62.2-36.8 161.8-22.5 0zM320 32l-128 0 0 80 40 176 48 0 40-176 0-80z"/></svg>

<svg xmlns="http://www.w3.org/2000/svg" viewBox="0 0 320 512"><!--! Font Awesome Pro 6.7.2 by @fontawesome - https://fontawesome.com License - https://fontawesome.com/license (Commercial License) Copyright 2024 Fonticons, Inc. --><defs><style>.fa-secondary{opacity:.4}</style></defs><path class="fa-secondary" d="M16 48l0 62.2L52.8 272l22.5 0L112 110.2 112 48 16 48zm192 0l0 62.2L244.8 272l22.5 0L304 110.2 304 48l-96 0z"/><path class="fa-primary" d="M52.8 272L16 110.2 16 48l96 0 0 62.2L75.2 272l-22.5 0zM128 32l-16 0L16 32 0 32 0 48l0 64L40 288l48 0 40-176 0-64 0-16zM244.8 272L208 110.2 208 48l96 0 0 62.2L267.2 272l-22.5 0zM320 32l-16 0-96 0-16 0 0 16 0 64 40 176 48 0 40-176 0-64 0-16z"/></svg>
